Newaita-dark/.places-manjaro/32/folder-open.svg

<svg xmlns="http://www.w3.org/2000/svg" xmlns:xlink="http://www.w3.org/1999/xlink" width="32px" height="32px" viewBox="0 0 32 32" version="1.1">
<defs>
<linearGradient id="linear0" gradientUnits="userSpaceOnUse" x1="254" y1="233.5" x2="254" y2="254.667007" gradientTransform="matrix(0.062505,0,0,0.062505,0,13.439)">
<stop offset="0" style="stop-color:rgb(0%,0%,0%);stop-opacity:0.275;"/>
<stop offset="1" style="stop-color:rgb(0%,0%,0%);stop-opacity:0;"/>
</linearGradient>
<radialGradient id="radial0" gradientUnits="userSpaceOnUse" cx="450.908997" cy="189.578995" fx="450.908997" fy="189.578995" r="21.167" gradientTransform="matrix(0,-0.07813,-0.14064,0,54.115002,63.595001)">
<stop offset="0" style="stop-color:rgb(0%,0%,0%);stop-opacity:0.314;"/>
<stop offset="0.222" style="stop-color:rgb(0%,0%,0%);stop-opacity:0.275;"/>
<stop offset="1" style="stop-color:rgb(0%,0%,0%);stop-opacity:0;"/>
</radialGradient>
<radialGradient id="radial1" gradientUnits="userSpaceOnUse" cx="450.908997" cy="189.578995" fx="450.908997" fy="189.578995" r="21.167" gradientTransform="matrix(0,0.07813,0.14064,0,-22.362,-7.5275)">
<stop offset="0" style="stop-color:rgb(0%,0%,0%);stop-opacity:0.314;"/>
<stop offset="0.222" style="stop-color:rgb(0%,0%,0%);stop-opacity:0.275;"/>
<stop offset="1" style="stop-color:rgb(0%,0%,0%);stop-opacity:0;"/>
</radialGradient>
<radialGradient id="radial2" gradientUnits="userSpaceOnUse" cx="450.908997" cy="189.578995" fx="450.908997" fy="189.578995" r="21.167" gradientTransform="matrix(0,-0.07813,0.14064,0,-22.362,63.595001)">
<stop offset="0" style="stop-color:rgb(0%,0%,0%);stop-opacity:0.314;"/>
<stop offset="0.222" style="stop-color:rgb(0%,0%,0%);stop-opacity:0.275;"/>
<stop offset="1" style="stop-color:rgb(0%,0%,0%);stop-opacity:0;"/>
</radialGradient>
<radialGradient id="radial3" gradientUnits="userSpaceOnUse" cx="450.908997" cy="189.578995" fx="450.908997" fy="189.578995" r="21.167" gradientTransform="matrix(0,0.07813,-0.14064,0,54.115002,-7.5275)">
<stop offset="0" style="stop-color:rgb(0%,0%,0%);stop-opacity:0.314;"/>
<stop offset="0.222" style="stop-color:rgb(0%,0%,0%);stop-opacity:0.275;"/>
<stop offset="1" style="stop-color:rgb(0%,0%,0%);stop-opacity:0;"/>
</radialGradient>
<linearGradient id="linear1" gradientUnits="userSpaceOnUse" x1="960" y1="255.117996" x2="960" y2="1215.118042" gradientTransform="matrix(0.01654,0,0,0.01654,0,0)">
<stop offset="0" style="stop-color:rgb(34.509805%,34.509805%,34.509805%);stop-opacity:0;"/>
<stop offset="1" style="stop-color:rgb(98.039216%,98.039216%,98.039216%);stop-opacity:0.196;"/>
</linearGradient>
<linearGradient id="linear2" gradientUnits="userSpaceOnUse" x1="254" y1="106.5" x2="254" y2="-84" gradientTransform="matrix(1,0,0,1,0,0.000000000000028422)">
<stop offset="0" style="stop-color:rgb(87.843138%,87.843138%,87.843138%);stop-opacity:1;"/>
<stop offset="1" style="stop-color:rgb(93.333334%,93.333334%,93.333334%);stop-opacity:1;"/>
</linearGradient>
<linearGradient id="linear3" gradientUnits="userSpaceOnUse" x1="960" y1="1695.118042" x2="960" y2="855.117981" gradientTransform="matrix(0.01654,0,0,0.01654,0,0)">
<stop offset="0" style="stop-color:rgb(34.509805%,34.509805%,34.509805%);stop-opacity:0;"/>
<stop offset="1" style="stop-color:rgb(98.039216%,98.039216%,98.039216%);stop-opacity:0.196;"/>
</linearGradient>
</defs>
<g id="surface1">
<path style=" stroke:none;fill-rule:nonzero;fill:url(#linear0);" d="M 3.96875 28.03125 L 27.78125 28.03125 L 27.78125 29.359375 L 3.96875 29.359375 Z M 3.96875 28.03125 "/>
<path style=" stroke:none;fill-rule:nonzero;fill:url(#radial0);" d="M 27.78125 28.03125 L 30.429688 28.03125 L 30.429688 26.710938 L 27.78125 26.710938 Z M 27.78125 28.03125 "/>
<path style=" stroke:none;fill-rule:nonzero;fill:url(#radial1);" d="M 3.96875 28.03125 L 1.320312 28.03125 L 1.320312 29.359375 L 3.96875 29.359375 Z M 3.96875 28.03125 "/>
<path style=" stroke:none;fill-rule:nonzero;fill:url(#radial2);" d="M 3.96875 28.03125 L 1.320312 28.03125 L 1.320312 26.710938 L 3.96875 26.710938 Z M 3.96875 28.03125 "/>
<path style=" stroke:none;fill-rule:nonzero;fill:url(#radial3);" d="M 27.78125 28.03125 L 30.429688 28.03125 L 30.429688 29.359375 L 27.78125 29.359375 Z M 27.78125 28.03125 "/>
<path style=" stroke:none;fill-rule:nonzero;fill:rgb(25.882354%,25.882354%,25.882354%);fill-opacity:1;" d="M 7.277344 4.21875 C 6.925781 4.21875 6.589844 4.355469 6.339844 4.605469 C 6.089844 4.855469 5.953125 5.191406 5.953125 5.542969 L 5.953125 6.863281 L 2.648438 6.863281 C 2.296875 6.863281 1.957031 7.003906 1.710938 7.25 C 1.460938 7.5 1.320312 7.835938 1.324219 8.1875 L 1.324219 18.773438 C 1.320312 19.125 1.460938 19.460938 1.710938 19.710938 C 1.957031 19.957031 2.296875 20.097656 2.648438 20.09375 L 29.109375 20.09375 C 29.457031 20.097656 29.796875 19.957031 30.042969 19.710938 C 30.292969 19.460938 30.429688 19.125 30.429688 18.773438 L 30.429688 8.1875 C 30.429688 7.851562 30.304688 7.546875 30.097656 7.3125 L 30.097656 5.542969 C 30.101562 5.191406 29.960938 4.855469 29.710938 4.605469 C 29.464844 4.355469 29.128906 4.21875 28.777344 4.21875 Z M 7.277344 4.21875 "/>
<path style=" stroke:none;fill-rule:nonzero;fill:url(#linear1);" d="M 7.277344 4.21875 C 6.925781 4.21875 6.589844 4.355469 6.339844 4.605469 C 6.089844 4.855469 5.953125 5.191406 5.953125 5.542969 L 5.953125 6.863281 L 2.648438 6.863281 C 2.296875 6.863281 1.957031 7.003906 1.710938 7.25 C 1.460938 7.5 1.320312 7.835938 1.324219 8.1875 L 1.324219 18.773438 C 1.320312 19.125 1.460938 19.460938 1.710938 19.710938 C 1.957031 19.957031 2.296875 20.097656 2.648438 20.09375 L 29.109375 20.09375 C 29.457031 20.097656 29.796875 19.957031 30.042969 19.710938 C 30.292969 19.460938 30.429688 19.125 30.429688 18.773438 L 30.429688 8.1875 C 30.429688 7.851562 30.304688 7.546875 30.097656 7.3125 L 30.097656 5.542969 C 30.101562 5.191406 29.960938 4.855469 29.710938 4.605469 C 29.464844 4.355469 29.128906 4.21875 28.777344 4.21875 Z M 7.277344 4.21875 "/>
<path style="fill-rule:nonzero;fill:url(#linear2);stroke-width:3;stroke-linecap:round;stroke-linejoin:miter;stroke:rgb(12.941177%,12.941177%,12.941177%);stroke-opacity:1;stroke-miterlimit:4;" d="M 52.870771 -84.017282 L 455.088598 -84.017282 C 460.900633 -84.017282 465.650253 -79.267661 465.650253 -73.393131 L 465.650253 95.905826 C 465.650253 101.780357 460.900633 106.529977 455.088598 106.529977 L 52.870771 106.529977 C 47.058736 106.529977 42.309116 101.780357 42.309116 95.905826 L 42.309116 -73.393131 C 42.309116 -79.267661 47.058736 -84.017282 52.870771 -84.017282 Z M 52.870771 -84.017282 " transform="matrix(0.062505,0,0,0.062505,0,13.439)"/>
<path style=" stroke:none;fill-rule:nonzero;fill:rgb(90.196079%,90.196079%,90.196079%);fill-opacity:0.588;" d="M 7.277344 4.21875 C 6.925781 4.21875 6.589844 4.355469 6.339844 4.605469 C 6.089844 4.855469 5.953125 5.191406 5.953125 5.542969 L 5.953125 5.707031 C 5.953125 5.355469 6.09375 5.019531 6.339844 4.769531 C 6.589844 4.523438 6.925781 4.382812 7.277344 4.386719 L 28.773438 4.386719 C 29.125 4.382812 29.464844 4.523438 29.710938 4.769531 C 29.960938 5.019531 30.097656 5.355469 30.097656 5.707031 L 30.097656 5.542969 C 30.101562 5.191406 29.960938 4.855469 29.710938 4.605469 C 29.464844 4.355469 29.125 4.21875 28.773438 4.21875 Z M 7.277344 4.21875 "/>
<path style=" stroke:none;fill-rule:nonzero;fill:rgb(12.941177%,12.941177%,12.941177%);fill-opacity:1;" d="M 7.277344 4.125 C 6.496094 4.125 5.859375 4.761719 5.859375 5.542969 L 5.859375 6.773438 L 2.648438 6.773438 C 2.269531 6.769531 1.910156 6.917969 1.644531 7.183594 C 1.378906 7.449219 1.226562 7.8125 1.226562 8.1875 L 1.226562 18.773438 C 1.226562 19.148438 1.378906 19.511719 1.644531 19.777344 C 1.910156 20.042969 2.269531 20.191406 2.648438 20.191406 L 29.109375 20.191406 C 29.484375 20.191406 29.84375 20.039062 30.109375 19.773438 C 30.375 19.507812 30.523438 19.148438 30.523438 18.773438 L 30.523438 8.1875 C 30.523438 7.855469 30.40625 7.535156 30.195312 7.28125 L 30.195312 5.542969 C 30.195312 4.757812 29.558594 4.125 28.773438 4.125 Z M 7.277344 4.3125 L 28.773438 4.3125 C 29.101562 4.3125 29.414062 4.441406 29.644531 4.671875 C 29.878906 4.902344 30.007812 5.214844 30.003906 5.542969 L 30.003906 7.347656 L 30.027344 7.371094 C 30.21875 7.589844 30.335938 7.875 30.335938 8.1875 L 30.335938 18.773438 C 30.335938 19.101562 30.207031 19.414062 29.976562 19.644531 C 29.746094 19.875 29.433594 20.003906 29.105469 20.003906 L 2.648438 20.003906 C 2.320312 20.003906 2.007812 19.875 1.777344 19.644531 C 1.542969 19.414062 1.414062 19.101562 1.414062 18.773438 L 1.414062 8.1875 C 1.414062 7.859375 1.542969 7.546875 1.777344 7.316406 C 2.007812 7.085938 2.320312 6.957031 2.648438 6.960938 L 6.046875 6.960938 L 6.046875 5.542969 C 6.046875 5.214844 6.175781 4.902344 6.40625 4.671875 C 6.636719 4.441406 6.949219 4.3125 7.277344 4.3125 Z M 7.277344 4.3125 "/>
<path style=" stroke:none;fill-rule:nonzero;fill:rgb(10.196079%,73.725492%,61.176473%);fill-opacity:1;" d="M 2.648438 12.820312 C 2.296875 12.816406 1.957031 12.957031 1.710938 13.207031 C 1.460938 13.453125 1.320312 13.792969 1.324219 14.140625 L 1.324219 26.710938 C 1.320312 27.0625 1.460938 27.398438 1.710938 27.648438 C 1.957031 27.894531 2.296875 28.035156 2.648438 28.03125 L 29.109375 28.03125 C 29.457031 28.035156 29.796875 27.894531 30.042969 27.648438 C 30.292969 27.398438 30.429688 27.0625 30.429688 26.710938 L 30.429688 14.140625 L 12.570312 14.140625 C 12.21875 14.144531 11.878906 14.003906 11.632812 13.753906 C 11.382812 13.507812 11.246094 13.167969 11.246094 12.820312 Z M 2.648438 12.820312 "/>
<path style=" stroke:none;fill-rule:nonzero;fill:rgb(0%,0%,0%);fill-opacity:0.196;" d="M 2.648438 28.03125 C 2.296875 28.035156 1.957031 27.894531 1.710938 27.648438 C 1.460938 27.398438 1.320312 27.0625 1.324219 26.710938 L 1.324219 26.546875 C 1.320312 26.894531 1.460938 27.234375 1.710938 27.480469 C 1.957031 27.730469 2.296875 27.871094 2.648438 27.867188 L 29.109375 27.867188 C 29.457031 27.871094 29.796875 27.730469 30.042969 27.480469 C 30.292969 27.234375 30.429688 26.894531 30.429688 26.546875 L 30.429688 26.710938 C 30.429688 27.0625 30.292969 27.398438 30.042969 27.648438 C 29.796875 27.894531 29.457031 28.035156 29.109375 28.03125 Z M 2.648438 28.03125 "/>
<path style=" stroke:none;fill-rule:nonzero;fill:rgb(90.196079%,90.196079%,90.196079%);fill-opacity:0.937;" d="M 2.648438 12.820312 C 2.296875 12.816406 1.957031 12.957031 1.710938 13.207031 C 1.460938 13.453125 1.320312 13.792969 1.324219 14.140625 L 1.324219 14.304688 C 1.320312 13.957031 1.460938 13.617188 1.710938 13.371094 C 1.957031 13.121094 2.296875 12.984375 2.648438 12.984375 L 11.246094 12.984375 L 11.246094 12.820312 Z M 2.648438 12.820312 "/>
<path style=" stroke:none;fill-rule:nonzero;fill:rgb(90.196079%,90.196079%,90.196079%);fill-opacity:0.937;" d="M 12.570312 14.304688 C 12.21875 14.308594 11.878906 14.167969 11.632812 13.921875 C 11.382812 13.671875 11.246094 13.335938 11.246094 12.984375 L 11.246094 12.820312 C 11.246094 13.167969 11.382812 13.507812 11.632812 13.753906 C 11.878906 14.003906 12.21875 14.144531 12.570312 14.140625 L 30.511719 14.140625 L 30.511719 14.304688 Z M 12.570312 14.304688 "/>
<path style=" stroke:none;fill-rule:nonzero;fill:url(#linear3);" d="M 2.648438 12.820312 C 2.296875 12.816406 1.957031 12.957031 1.710938 13.207031 C 1.460938 13.453125 1.320312 13.792969 1.324219 14.140625 L 1.324219 26.710938 C 1.320312 27.0625 1.460938 27.398438 1.710938 27.648438 C 1.957031 27.894531 2.296875 28.035156 2.648438 28.03125 L 29.109375 28.03125 C 29.457031 28.035156 29.796875 27.894531 30.042969 27.648438 C 30.292969 27.398438 30.429688 27.0625 30.429688 26.710938 L 30.429688 14.140625 L 12.570312 14.140625 C 12.21875 14.144531 11.878906 14.003906 11.632812 13.753906 C 11.382812 13.507812 11.246094 13.167969 11.246094 12.820312 Z M 2.648438 12.820312 "/>
<path style=" stroke:none;fill-rule:nonzero;fill:rgb(12.941177%,12.941177%,12.941177%);fill-opacity:1;" d="M 2.648438 12.726562 C 1.863281 12.726562 1.230469 13.359375 1.226562 14.140625 L 1.226562 26.710938 C 1.226562 27.085938 1.378906 27.449219 1.644531 27.714844 C 1.910156 27.980469 2.269531 28.128906 2.648438 28.128906 L 29.109375 28.128906 C 29.484375 28.128906 29.84375 27.976562 30.109375 27.710938 C 30.375 27.445312 30.523438 27.085938 30.523438 26.710938 L 30.523438 14.050781 L 12.570312 14.050781 C 12.242188 14.050781 11.929688 13.921875 11.699219 13.691406 C 11.46875 13.457031 11.339844 13.144531 11.339844 12.820312 L 11.339844 12.722656 Z M 2.648438 12.910156 L 11.15625 12.910156 C 11.203125 13.65625 11.820312 14.238281 12.570312 14.238281 L 30.335938 14.238281 L 30.335938 26.710938 C 30.335938 27.039062 30.207031 27.351562 29.976562 27.582031 C 29.746094 27.8125 29.433594 27.941406 29.109375 27.941406 L 2.648438 27.941406 C 2.320312 27.941406 2.007812 27.8125 1.777344 27.582031 C 1.542969 27.351562 1.414062 27.039062 1.414062 26.710938 L 1.414062 14.140625 C 1.414062 13.816406 1.542969 13.503906 1.773438 13.269531 C 2.007812 13.039062 2.320312 12.910156 2.648438 12.914062 Z M 2.648438 12.910156 "/>
</g>
</svg>

<svg xmlns="http://www.w3.org/2000/svg" width="32pt" height="32pt" viewBox="0 0 32 32"><defs><linearGradient id="a" gradientUnits="userSpaceOnUse" x1="254" y1="233.5" x2="254" y2="254.667" gradientTransform="matrix(.0625 0 0 .0625 0 13.439)"><stop offset="0" stop-opacity=".275"/><stop offset="1" stop-opacity="0"/></linearGradient><radialGradient id="b" gradientUnits="userSpaceOnUse" cx="450.909" cy="189.579" fx="450.909" fy="189.579" r="21.167" gradientTransform="matrix(0 -.07813 -.14064 0 54.115 63.595)"><stop offset="0" stop-opacity=".314"/><stop offset=".222" stop-opacity=".275"/><stop offset="1" stop-opacity="0"/></radialGradient><radialGradient id="c" gradientUnits="userSpaceOnUse" cx="450.909" cy="189.579" fx="450.909" fy="189.579" r="21.167" gradientTransform="matrix(0 .07813 .14064 0 -22.362 -7.527)"><stop offset="0" stop-opacity=".314"/><stop offset=".222" stop-opacity=".275"/><stop offset="1" stop-opacity="0"/></radialGradient><radialGradient id="d" gradientUnits="userSpaceOnUse" cx="450.909" cy="189.579" fx="450.909" fy="189.579" r="21.167" gradientTransform="matrix(0 -.07813 .14064 0 -22.362 63.595)"><stop offset="0" stop-opacity=".314"/><stop offset=".222" stop-opacity=".275"/><stop offset="1" stop-opacity="0"/></radialGradient><radialGradient id="e" gradientUnits="userSpaceOnUse" cx="450.909" cy="189.579" fx="450.909" fy="189.579" r="21.167" gradientTransform="matrix(0 .07813 -.14064 0 54.115 -7.527)"><stop offset="0" stop-opacity=".314"/><stop offset=".222" stop-opacity=".275"/><stop offset="1" stop-opacity="0"/></radialGradient><linearGradient id="f" gradientUnits="userSpaceOnUse" x1="960" y1="255.118" x2="960" y2="1215.118" gradientTransform="rotate(.891) scale(.01654)"><stop offset="0" stop-color="#585858" stop-opacity="0"/><stop offset="1" stop-color="#fafafa" stop-opacity=".196"/></linearGradient><linearGradient id="g" gradientUnits="userSpaceOnUse" x1="254" y1="106.5" x2="254" y2="-84"><stop offset="0" stop-color="#e0e0e0"/><stop offset="1" stop-color="#eee"/></linearGradient><linearGradient id="h" gradientUnits="userSpaceOnUse" x1="960" y1="1695.118" x2="960" y2="855.118" gradientTransform="rotate(.891) scale(.01654)"><stop offset="0" stop-color="#585858" stop-opacity="0"/><stop offset="1" stop-color="#fafafa" stop-opacity=".196"/></linearGradient></defs><path d="M3.969 28.035h23.816v1.32H3.97zm0 0" fill="url(#a)"/><path d="M27.785 28.035h2.645v-1.324h-2.645zm0 0" fill="url(#b)"/><path d="M3.969 28.035H1.324v1.32H3.97zm0 0" fill="url(#c)"/><path d="M3.969 28.035H1.324v-1.324H3.97zm0 0" fill="url(#d)"/><path d="M27.785 28.035h2.645v1.32h-2.645zm0 0" fill="url(#e)"/><path d="M7.277 4.219a1.32 1.32 0 0 0-1.324 1.324v1.32H2.645c-.73 0-1.32.594-1.32 1.324v10.586c0 .73.59 1.32 1.32 1.32h26.46a1.32 1.32 0 0 0 1.325-1.32V8.188c0-.336-.125-.641-.332-.876V5.543a1.32 1.32 0 0 0-1.32-1.324zm0 0" fill="#424242"/><path d="M7.277 4.219a1.32 1.32 0 0 0-1.324 1.324v1.32H2.645c-.73 0-1.32.594-1.32 1.324v10.586c0 .73.59 1.32 1.32 1.32h26.46a1.32 1.32 0 0 0 1.325-1.32V8.188c0-.336-.125-.641-.332-.876V5.543a1.32 1.32 0 0 0-1.32-1.324zm0 0" fill="url(#f)"/><path d="M52.932-84.013h402.15c5.874 0 10.561 4.75 10.561 10.624V95.908a10.509 10.509 0 0 1-10.561 10.561H52.932c-5.874 0-10.624-4.687-10.624-10.561V-73.39c0-5.874 4.75-10.624 10.624-10.624zm0 0" transform="matrix(.0625 0 0 .0625 0 13.439)" fill="url(#g)" stroke-width="3" stroke-linecap="round" stroke="#212121"/><path d="M7.277 4.219a1.32 1.32 0 0 0-1.324 1.324v.164c0-.734.59-1.324 1.324-1.324h21.5c.73 0 1.32.59 1.32 1.324v-.164a1.32 1.32 0 0 0-1.32-1.324zm0 0" fill="#e6e6e6" fill-opacity=".588"/><path d="M7.277 4.125c-.785 0-1.418.633-1.418 1.418V6.77H2.645c-.782 0-1.415.636-1.415 1.418v10.585c0 .782.633 1.415 1.415 1.415h26.46c.786 0 1.418-.633 1.418-1.415V8.188c0-.348-.125-.665-.332-.91V5.542c0-.785-.632-1.418-1.414-1.418zm0 .188h21.5c.68 0 1.227.546 1.227 1.23v1.805l.023.027c.192.215.309.5.309.813v10.585c0 .684-.547 1.227-1.23 1.227H2.644c-.68 0-1.227-.543-1.227-1.227V8.188c0-.684.547-1.227 1.227-1.227h3.402V5.543c0-.684.547-1.23 1.23-1.23zm0 0" fill="#212121"/><path d="M2.645 12.82c-.73 0-1.32.59-1.32 1.32v12.57c0 .735.59 1.325 1.32 1.325h26.46a1.32 1.32 0 0 0 1.325-1.324V14.14H12.57a1.32 1.32 0 0 1-1.324-1.32zm0 0" fill="#1abc9c"/><path d="M2.645 28.035c-.73 0-1.32-.59-1.32-1.324v-.164c0 .73.59 1.32 1.32 1.32h26.46a1.32 1.32 0 0 0 1.325-1.32v.164a1.32 1.32 0 0 1-1.325 1.324zm0 0" fill-opacity=".196"/><path d="M2.645 12.82c-.73 0-1.32.59-1.32 1.32v.169c0-.735.59-1.325 1.32-1.325h8.601v-.164zm0 0" fill="#e6e6e6" fill-opacity=".937"/><path d="M12.57 14.309a1.32 1.32 0 0 1-1.324-1.325v-.164c0 .73.59 1.325 1.324 1.32h17.942v.169zm0 0" fill="#e6e6e6" fill-opacity=".937"/><path d="M2.645 12.82c-.73 0-1.32.59-1.32 1.32v12.57c0 .735.59 1.325 1.32 1.325h26.46a1.32 1.32 0 0 0 1.325-1.324V14.14H12.57a1.32 1.32 0 0 1-1.324-1.32zm0 0" fill="url(#h)"/><path d="M2.645 12.727c-.782 0-1.415.632-1.415 1.414v12.57c0 .785.633 1.418 1.415 1.418h26.46c.786 0 1.418-.633 1.418-1.418V14.047H12.57c-.683 0-1.23-.547-1.23-1.227v-.093zm0 .187h8.511c.051.738.66 1.32 1.414 1.32h17.766v12.477c0 .684-.547 1.23-1.23 1.23H2.644c-.68 0-1.227-.546-1.227-1.23V14.14c0-.68.547-1.227 1.227-1.227zm0 0" fill="#212121"/></svg>
